!!!OTL: Der Koenig von Thule.
!!!OTL-incipit: ES WAR EIN KOENIG VON THULE
!!!COM: Zelter
!!!ARE: Europa, Mitteleuropa, Deutschland
!!!SCT: F0825
!!!TXL: @@DE
!!!YEM: Copyright 1995, estate of Helmut Schaffrath.
**kern	**text
*ICvox	*
*clefF4	*
*M6/4	*
*k[]	*
*a:	*
!LO:TX:a:t=Sanft und frei.	!
{4E	1._Es
=1	=1
2A	war
4A	ein
[4.E	König
8E]	.
4E	von
=2	=2
2.F	Thu-
2C}	-le,
{4C	gar
=3	=3
2D	treu
4E	bis
2F	an
4D	das
=4	=4
1E	Grab,
4r}	.
{4E	dem
=5	=5
2A	ſter-
4A	-bend
[4.G	ſei-
8G]	.
4G	-ne
=6	=6
2.C	Buh-
2D}	-le
{8D	ei-
8D	-nen
=7	=7
2E	gold'-
4F	-nen
2D	Be-
4E	-cher
=8	=8
[1.AA	gab.
=9	=9
1AA]	.
4r}	.
==	==
!!!AGN: erzaehlendes Volks - Lied, Ballade
!!!ONB: ESAC (Essen Associative Code) Database: FINK
!!!AMT: compound duple
!!!AIN: vox
!!!EED: Helmut Schaffrath
!!!EEV: 1.0
!!!GTL: Romanzen und Balladen
!!!source: Musikalischer Hausschatz der Deutschen. Eine Sammlung von über 1000 Liedern und Gesängen mit Singstimmen und Klavierbegleitung. Leipzig, Litterarisches Verlags-Haus.
!!!page: 580
!!!ENC: Anna Maria Matuszewska
!!!EEV: 2024/08/06
*-	*-